X: 18019
T: Huish The Cat
R: jig
M: 6/8
K: Ddorian
A|:DED D2A|AGE Jc3|DED D2A|AGE JG2E|
DED D2A|AGE c3|ABc .d.c.A|1 AGEJG2E:|2 AGE ~E2D||
|:dcA AGE|AGE c2A|dcA AGE|AGE E2D|
dcA AGE|AGE c3|ABc .d.cA|1 AGE E2D:|2 AGEJG2E||
A|:D(3DDD {A}D2A|AGE Jc3|D(3DDD D(3DDD|AGE JG2E|
(3DDDD {A}D2A|AGE c3|ABc .d.c.A|1 {B}AGEJG2E:|2 {B} AGE ~E2D||
|:dcA AGE|AGE c2A/B/|dcA AGE|AGE E2D|
dcA AGE|AGE c3|ABc .d.cA|1 AGE E2D:|2 AGEJG2E||

